X: 4
M: 6/8
L: 1/8
K: G
|:\
d2d gBc | d2d gBc | d2d g2f | efd ^cBA |\
f2f fed | g2g fed | a2a agf | ed^c d2 |]"D.C."y


